!!!OTL: Khuluma
!!!XEN: Speak
!!!CNT: African -- sub-Saharan -- Zulu
**kern
*k[f#]
*M4/4
*MM88
8g
4.b
8g
=1
8f#
8e
8c
8g
8g
8f#
8d
8cc
=2
8cc
4b
8g
4b
8g
8g
=3
8f#
8e
8B
8g
8g
8f#
8d
8g
=4
8g
4g
8g
4.b
8g
=5
8f#
8e
8c
8g
8g
8f#
8d
8cc
=6
8cc
4b
8g
4b
8g
8g
=7
8f#
8e
8c
8g
8g
8f#
8d
8g
=8
8g
4g
8b
4.dd
8cc
!! Repeat the following section.
=9
8b
8a
8e
8ee
8ee
4.dd
=10
8dd
4dd
8b
4.dd
8cc
=11
8b
8a
8e
8g
8g
4.f#
=12
8g
4g
8b
4.dd
8cc
=13
8b
8a
8e
8ee
8ee
4.dd
=14
8dd
4dd
8b
4.dd
8cc
=15
8b
8a
8e
8g
8a
4.f#
=16
8g
4a
8g
4.g
16g
16g
=17
8g
8a
8e
8g
8g
4.f#
=18
8cc
4b
8g
4.g
16g
16g
=19
8g
8a
8e
8g
8g
4.f#
=20
8g
4g
8g
4.g
16g
16g
=21
8g
8a
8e
8g
8g
4.f#
=22
8cc
4b
8g
4.g
16g
16g
=23
8g
8a
8e
8g
8g
4.f#
!! First ending.
=24
8g
4g
8b
4.dd
8cc
!! Repeating.
=25
8b
8a
8e
8ee
8ee
4.dd
=26
8dd
4dd
8b
4.dd
8cc
=27
8b
8a
8e
8g
8g
4.f#
=28
8g
4g
8b
4.dd
8cc
=29
8b
8a
8e
8ee
8ee
4.dd
=30
8dd
4dd
8b
4.dd
8cc
=31
8b
8a
8e
8g
8a
4.f#
=32
8g
4a
8g
4.g
16g
16g
=33
8g
8a
8e
8g
8g
4.f#
=34
8cc
4b
8g
4.g
16g
16g
=35
8g
8a
8e
8g
8g
4.f#
=36
8g
4g
8g
4.g
16g
16g
=37
8g
8a
8e
8g
8g
4.f#
=38
8cc
4b
8g
4.g
16g
16g
=39
8g
8a
8e
8g
8g
4.f#
!! Second ending.
=40
8g
4g
8b
4.g
8g
!! Repeat these two bars.
=41
8g
8a
8e
8g
8g
4f#
8f#
=42
8g
4g
8g
4.g
8g
!! Repeating.
=43
8g
8a
8e
8g
8g
4f#
8f#
=44
8g
4g
8g
4.g
8g
==
*-
!!!OPR: Miriam Makeba, "The World of African Song"
!!!PPP: Chicago
!!!PPR: Quadrangle Press (12 East Delaware Place)
!!!PDT: 1971///
!!!PPG: 116
!!!ENC: David Huron
!!!EMD: 1998/9/29/ Paul von Hippel updated this file in the following ways:
!!!EMD:  (1) changed the representation of slurs from curly braces to parentheses 
!!!EMD:  (2) changed freeform comments into reference records and tandem interpretations
!!!EMD:  (3) changed final barline from triple (===) to double (==)
!!!EMD:  (4) added key signature from printed source
!!!EEV: Version 2.0
